X:1
T:Title
%%score { ( 1 3 ) | ( 2 4 ) }
L:1/8
Q:1/4=100
M:4/4
K:F
V:1 treble nm="Grand Piano"
V:3 treble 
V:2 treble 
V:4 treble 
V:1
 A2 G2 F>A d>c | c4 A4 | B2 A2 [DG]>[DG] [DF]>[DG] | [^CEA]6 z2 | A2 G2 F>A d>c | c4 A4 | %6
w: J.~H.~Tenney * * * * *||||||
 [DFA]>[DFG] [DFc]>[DFB] [CFA]2 A>G |[M:3/4] F6 |[M:1/4] c2 |[M:4/4] d2 c>c B2 [CGc]>[CGB] | %10
w: ||||
 [CFA]2 z A [CEG]2 GA | B6 z2 |[M:3/4] A6 |[M:1/4] c2 |[M:4/4] [Fd]2 [Fd]>[Fd] [DFf]2 [Fe]>[Fd] | %15
w: |||||
 [Fc]2 z2 z4 | %16
w: |
[M:9/8] c6- c z[Q:1/4=83] z[Q:1/4=98][Q:1/4=96][Q:1/4=94][Q:1/4=92][Q:1/4=90][Q:1/4=88][Q:1/4=85][Q:1/4=81][Q:1/4=79][Q:1/4=77] | %17
w: |
[M:4/4] [A,F]6 z2 |] %18
w: |
V:2
 [F,CF]2 [B,CE]2 [A,C]>[A,CF] [G,B,E]>[K:bass][G,B,E] | [F,A,F]4 [F,CF]4 | %2
 [F,DF]2 [F,CF]2 B,,>B,, B,,>B,, | A,,6 z2 | [F,CF]2 [B,CE]2 [A,C]>[A,CF] [G,B,E]>[K:bass][G,B,E] | %5
 [F,A,F]4 [F,CF]4 | B,,>B,, G,,>G,, C,2 C,2 |[M:3/4] [F,A,]6 |[M:1/4][K:treble] [F,A,F]2 | %9
[M:4/4] [B,F]2 [A,C^F]>[A,CF] [G,DG]2[K:bass] E,>E, | F,2 A,F, C,2[K:treble] EF | %11
 G6[K:bass][K:treble] z2 |[M:3/4] F6[K:bass] |[M:1/4] [F,A,F]2 | %14
[M:4/4] [B,,B,]2 [B,,B,]>[B,,B,] B,,C, [D,C]>[E,B,] | %15
 [F,A,]>G,[K:treble] [A,CF]>[G,B,E] [F,A,F]2 z z/ F/ |[M:9/8][K:bass] A6- A z z |[M:4/4] F,6 z2 |] %18
V:3
 x8 | x8 | x8 | x8 | x8 | x8 | z4 z2 [B,E]2 |[M:3/4] x6 |[M:1/4] x2 |[M:4/4] x8 | z2 [CF]2 z4 | %11
 z2 C2 C2 cB |[M:3/4] z z/ C/ C>C C2 |[M:1/4] x2 |[M:4/4] x8 | z z/ B,/ c>c c2 F>A | %16
[M:9/8] z2 C- C<.C z z [CGB]>[B,EG] |[M:4/4] x8 |] %18
V:4
 x15/2[K:bass] x/ | x8 | x8 | x8 | x15/2[K:bass] x/ | x8 | x8 |[M:3/4] x6 |[M:1/4][K:treble] x2 | %9
[M:4/4] x6[K:bass] x2 | x6[K:treble] x2 | z2[K:bass] C,2 C,2[K:treble] AG | %12
[M:3/4] z z/[K:bass] F,/ F,>F, F,2 |[M:1/4] x2 |[M:4/4] x8 | x2[K:treble] x6 | %16
[M:9/8][K:bass] z2 F,- F,/A,/ C2- CC,>C, |[M:4/4] x8 |] %18

